Dominus_Dark_Funeral/symbolic/actions/system-switch-user-symbolic.svg

<svg xmlns="http://www.w3.org/2000/svg" width="24" height="24"><g fill="gray"><path d="M11.403 2.754a10.404 10.404 0 0 0-1.173.084 10.404 10.404 0 0 0-8.848 8.25 10.405 10.405 0 0 0 4.954 11.04 1.485 1.485 0 0 0 .704.212l-.001.001a1.485 1.485 0 0 0 .791-2.777 7.418 7.418 0 0 1-3.54-7.89 7.415 7.415 0 0 1 6.322-5.895 7.411 7.411 0 0 1 .791-.06" font-family="sans-serif" font-weight="400" overflow="visible" style="font-variant-ligatures:normal;font-variant-position:normal;font-variant-caps:normal;font-variant-numeric:normal;font-variant-alternates:normal;font-feature-settings:normal;text-indent:0;text-decoration-line:none;text-decoration-style:solid;text-decoration-color:#000;text-transform:none;text-orientation:mixed;shape-padding:0;isolation:auto;mix-blend-mode:normal" white-space="normal"/><path d="M10.035 1.553c.82 0 1.485.706 1.485 1.477v5.95L4.094 1.552z"/><path d="M12.493 21.142a10.404 10.404 0 0 0 1.173-.084 10.404 10.404 0 0 0 8.848-8.25 10.405 10.405 0 0 0-4.954-11.04 1.485 1.485 0 0 0-.704-.212l.001-.001a1.485 1.485 0 0 0-.791 2.777 7.418 7.418 0 0 1 3.54 7.89 7.415 7.415 0 0 1-6.322 5.895 7.411 7.411 0 0 1-.791.06" font-family="sans-serif" font-weight="400" overflow="visible" style="font-variant-ligatures:normal;font-variant-position:normal;font-variant-caps:normal;font-variant-numeric:normal;font-variant-alternates:normal;font-feature-settings:normal;text-indent:0;text-decoration-line:none;text-decoration-style:solid;text-decoration-color:#000;text-transform:none;text-orientation:mixed;shape-padding:0;isolation:auto;mix-blend-mode:normal" white-space="normal"/><path d="M13.861 22.343c-.82 0-1.485-.706-1.485-1.477v-5.95l7.426 7.427z"/></g></svg>

<?xml version="1.0" encoding="UTF-8" standalone="no"?>
<svg
   xmlns:dc="http://purl.org/dc/elements/1.1/"
   xmlns:cc="http://creativecommons.org/ns#"
   xmlns:rdf="http://www.w3.org/1999/02/22-rdf-syntax-ns#"
   xmlns:svg="http://www.w3.org/2000/svg"
   xmlns="http://www.w3.org/2000/svg"
   xmlns:sodipodi="http://sodipodi.sourceforge.net/DTD/sodipodi-0.dtd"
   xmlns:inkscape="http://www.inkscape.org/namespaces/inkscape"
   width="24"
   height="24"
   version="1.1"
   id="svg12"
   sodipodi:docname="system-switch-user-symbolic.svg"
   inkscape:version="0.92.4 (5da689c313, 2019-01-14)">
  <metadata
     id="metadata18">
    <rdf:RDF>
      <cc:Work
         rdf:about="">
        <dc:format>image/svg+xml</dc:format>
        <dc:type
           rdf:resource="http://purl.org/dc/dcmitype/StillImage" />
        <dc:title></dc:title>
      </cc:Work>
    </rdf:RDF>
  </metadata>
  <defs
     id="defs16" />
  <sodipodi:namedview
     pagecolor="#ffffff"
     bordercolor="#666666"
     borderopacity="1"
     objecttolerance="10"
     gridtolerance="10"
     guidetolerance="10"
     inkscape:pageopacity="0"
     inkscape:pageshadow="2"
     inkscape:window-width="1112"
     inkscape:window-height="480"
     id="namedview14"
     showgrid="false"
     inkscape:zoom="9.8333333"
     inkscape:cx="1.0677966"
     inkscape:cy="12"
     inkscape:window-x="0"
     inkscape:window-y="25"
     inkscape:window-maximized="0"
     inkscape:current-layer="svg12" />
  <g
     id="g10"
     style="fill:#808080">
    <path
       d="M 11.403,2.754 A 10.404,10.404 0 0 0 10.23,2.838 10.404,10.404 0 0 0 1.382,11.088 10.405,10.405 0 0 0 6.336,22.128 1.485,1.485 0 0 0 7.04,22.34 L 7.039,22.341 A 1.485,1.485 0 0 0 7.83,19.564 7.418,7.418 0 0 1 4.29,11.674 7.415,7.415 0 0 1 10.612,5.779 7.411,7.411 0 0 1 11.403,5.719"
       font-weight="400"
       overflow="visible"
       style="font-weight:400;font-family:sans-serif;font-variant-ligatures:normal;font-variant-position:normal;font-variant-caps:normal;font-variant-numeric:normal;font-variant-alternates:normal;font-feature-settings:normal;text-indent:0;text-decoration:none;text-decoration-line:none;text-decoration-style:solid;text-decoration-color:#000000;text-transform:none;text-orientation:mixed;white-space:normal;shape-padding:0;overflow:visible;isolation:auto;mix-blend-mode:normal"
       id="path2"
       inkscape:connector-curvature="0" />
    <path
       d="m 10.035,1.553 c 0.82,0 1.485,0.706 1.485,1.477 V 8.98 L 4.094,1.552 Z"
       id="path4"
       inkscape:connector-curvature="0" />
    <path
       d="m 12.493,21.142 a 10.404,10.404 0 0 0 1.173,-0.084 10.404,10.404 0 0 0 8.848,-8.25 A 10.405,10.405 0 0 0 17.56,1.768 1.485,1.485 0 0 0 16.856,1.556 l 10e-4,-0.001 a 1.485,1.485 0 0 0 -0.791,2.777 7.418,7.418 0 0 1 3.54,7.89 7.415,7.415 0 0 1 -6.322,5.895 7.411,7.411 0 0 1 -0.791,0.06"
       font-weight="400"
       overflow="visible"
       style="font-weight:400;font-family:sans-serif;font-variant-ligatures:normal;font-variant-position:normal;font-variant-caps:normal;font-variant-numeric:normal;font-variant-alternates:normal;font-feature-settings:normal;text-indent:0;text-decoration:none;text-decoration-line:none;text-decoration-style:solid;text-decoration-color:#000000;text-transform:none;text-orientation:mixed;white-space:normal;shape-padding:0;overflow:visible;isolation:auto;mix-blend-mode:normal"
       id="path6"
       inkscape:connector-curvature="0" />
    <path
       d="m 13.861,22.343 c -0.82,0 -1.485,-0.706 -1.485,-1.477 v -5.95 l 7.426,7.427 z"
       id="path8"
       inkscape:connector-curvature="0" />
  </g>
</svg>
